Dominus_Dark_Funeral/22/apps/skrooge.svg

<svg xmlns="http://www.w3.org/2000/svg" width="24" height="24" viewBox="0 0 6.35 6.35"><defs><linearGradient id="b"><stop offset="0"/><stop offset="1" stop-opacity="0"/></linearGradient><linearGradient id="a"><stop offset="0"/><stop offset="1" stop-opacity="0"/></linearGradient></defs><path d="M3.87.21a2.96 2.96 0 0 0-2.75 1.86H.53l-.36.73h.76a2.96 2.96 0 0 0-.02.38l-.37.74H1a2.96 2.96 0 0 0 2.87 2.22 2.96 2.96 0 0 0 2.3-1.1H5.1a2.22 2.22 0 0 1-1.22.36 2.22 2.22 0 0 1-2.09-1.48h2.46l.37-.73H1.65a2.22 2.22 0 0 1 .03-.38h2.93l.36-.74H1.94A2.22 2.22 0 0 1 3.87.95a2.22 2.22 0 0 1 1.22.37h1.1A2.96 2.96 0 0 0 3.86.22z" fill="#e6e6e6"/></svg>

<?xml version="1.0" encoding="UTF-8" standalone="no"?>
<svg
   xmlns:dc="http://purl.org/dc/elements/1.1/"
   xmlns:cc="http://creativecommons.org/ns#"
   xmlns:rdf="http://www.w3.org/1999/02/22-rdf-syntax-ns#"
   xmlns:svg="http://www.w3.org/2000/svg"
   xmlns="http://www.w3.org/2000/svg"
   xmlns:sodipodi="http://sodipodi.sourceforge.net/DTD/sodipodi-0.dtd"
   xmlns:inkscape="http://www.inkscape.org/namespaces/inkscape"
   width="24"
   height="24"
   viewBox="0 0 6.35 6.35"
   version="1.1"
   id="svg16"
   sodipodi:docname="skrooge.svg"
   inkscape:version="0.92.4 (5da689c313, 2019-01-14)">
  <metadata
     id="metadata20">
    <rdf:RDF>
      <cc:Work
         rdf:about="">
        <dc:format>image/svg+xml</dc:format>
        <dc:type
           rdf:resource="http://purl.org/dc/dcmitype/StillImage" />
        <dc:title></dc:title>
      </cc:Work>
    </rdf:RDF>
  </metadata>
  <sodipodi:namedview
     pagecolor="#ffffff"
     bordercolor="#666666"
     borderopacity="1"
     objecttolerance="10"
     gridtolerance="10"
     guidetolerance="10"
     inkscape:pageopacity="0"
     inkscape:pageshadow="2"
     inkscape:window-width="1138"
     inkscape:window-height="480"
     id="namedview18"
     showgrid="false"
     inkscape:zoom="9.8333333"
     inkscape:cx="1.0677966"
     inkscape:cy="12"
     inkscape:window-x="0"
     inkscape:window-y="25"
     inkscape:window-maximized="0"
     inkscape:current-layer="svg16" />
  <defs
     id="defs12">
    <linearGradient
       id="b">
      <stop
         offset="0"
         id="stop2" />
      <stop
         offset="1"
         stop-opacity="0"
         id="stop4" />
    </linearGradient>
    <linearGradient
       id="a">
      <stop
         offset="0"
         id="stop7" />
      <stop
         offset="1"
         stop-opacity="0"
         id="stop9" />
    </linearGradient>
  </defs>
  <path
     d="M 3.87,0.21 A 2.96,2.96 0 0 0 1.12,2.07 H 0.53 L 0.17,2.8 H 0.93 A 2.96,2.96 0 0 0 0.91,3.18 L 0.54,3.92 H 1 a 2.96,2.96 0 0 0 2.87,2.22 2.96,2.96 0 0 0 2.3,-1.1 H 5.1 A 2.22,2.22 0 0 1 3.88,5.4 2.22,2.22 0 0 1 1.79,3.92 H 4.25 L 4.62,3.19 H 1.65 A 2.22,2.22 0 0 1 1.68,2.81 H 4.61 L 4.97,2.07 H 1.94 A 2.22,2.22 0 0 1 3.87,0.95 2.22,2.22 0 0 1 5.09,1.32 h 1.1 A 2.96,2.96 0 0 0 3.86,0.22 Z"
     id="path14"
     inkscape:connector-curvature="0"
     style="fill:#e6e6e6" />
</svg>
